assets/favicon.svg

<svg width="264" height="264" fill="none" xmlns="http://www.w3.org/2000/svg"><g filter="url(#a)" fill="#775ADA"><path d="M55 25.5h26V51H55V25.5Z"/><path fill-rule="evenodd" clip-rule="evenodd" d="M80.22 26.265H55.78v23.97h24.44v-23.97ZM55 25.5V51h26V25.5H55Z"/><path d="M4 128h25.5v25.5H4V128Z"/><path fill-rule="evenodd" clip-rule="evenodd" d="M28.735 128.765H4.765v23.97h23.97v-23.97ZM4 128v25.5h25.5V128H4Z"/><path d="M234.5 128H260v25.5h-25.5V128Z"/><path fill-rule="evenodd" clip-rule="evenodd" d="M259.235 128.765h-23.97v23.97h23.97v-23.97ZM234.5 128v25.5H260V128h-25.5Z"/><path d="M81 0h25.5v25.5H81V0Z"/><path fill-rule="evenodd" clip-rule="evenodd" d="M105.735.765h-23.97v23.97h23.97V.765ZM81 0v25.5h25.5V0H81Z"/><path d="M106.5 0H132v25.5h-25.5V0Z"/><path fill-rule="evenodd" clip-rule="evenodd" d="M131.235.765h-23.97v23.97h23.97V.765ZM106.5 0v25.5H132V0h-25.5Z"/><path d="M132 0h25.5v25.5H132V0Z"/><path fill-rule="evenodd" clip-rule="evenodd" d="M156.735.765h-23.97v23.97h23.97V.765ZM132 0v25.5h25.5V0H132Z"/><path d="M157.5 0H183v25.5h-25.5V0Z"/><path fill-rule="evenodd" clip-rule="evenodd" d="M182.235.765h-23.97v23.97h23.97V.765ZM157.5 0v25.5H183V0h-25.5Z"/><path d="M183 25.5h26V51h-26V25.5Z"/><path fill-rule="evenodd" clip-rule="evenodd" d="M208.22 26.265h-24.44v23.97h24.44v-23.97ZM183 25.5V51h26V25.5h-26Z"/><path d="M209 51h25.5v26H209V51Z"/><path fill-rule="evenodd" clip-rule="evenodd" d="M233.735 51.78h-23.97v24.44h23.97V51.78ZM209 51v26h25.5V51H209Z"/><path d="M209 77h25.5v25.5H209V77Z"/><path fill-rule="evenodd" clip-rule="evenodd" d="M233.735 77.765h-23.97v23.97h23.97v-23.97ZM209 77v25.5h25.5V77H209Z"/><path d="M209 102.5h25.5V128H209v-25.5Z"/><path fill-rule="evenodd" clip-rule="evenodd" d="M233.735 103.265h-23.97v23.97h23.97v-23.97ZM209 102.5V128h25.5v-25.5H209Z"/><path d="M29.5 230.5H55V256H29.5v-25.5Z"/><path fill-rule="evenodd" clip-rule="evenodd" d="M54.235 231.265h-23.97v23.97h23.97v-23.97ZM29.5 230.5V256H55v-25.5H29.5Z"/><path d="M55 205h26v25.5H55V205Z"/><path fill-rule="evenodd" clip-rule="evenodd" d="M80.22 205.765H55.78v23.97h24.44v-23.97ZM55 205v25.5h26V205H55Z"/><path d="M81 205h25.5v25.5H81V205Z"/><path fill-rule="evenodd" clip-rule="evenodd" d="M105.735 205.765h-23.97v23.97h23.97v-23.97ZM81 205v25.5h25.5V205H81Z"/><path d="M106.5 230.5H132V256h-25.5v-25.5Z"/><path fill-rule="evenodd" clip-rule="evenodd" d="M131.235 231.265h-23.97v23.97h23.97v-23.97ZM106.5 230.5V256H132v-25.5h-25.5Z"/><path d="M132 230.5h25.5V256H132v-25.5Z"/><path fill-rule="evenodd" clip-rule="evenodd" d="M156.735 231.265h-23.97v23.97h23.97v-23.97ZM132 230.5V256h25.5v-25.5H132Z"/><path d="M157.5 205H183v25.5h-25.5V205Z"/><path fill-rule="evenodd" clip-rule="evenodd" d="M182.235 205.765h-23.97v23.97h23.97v-23.97ZM157.5 205v25.5H183V205h-25.5Z"/><path d="M183 205h26v25.5h-26V205Z"/><path fill-rule="evenodd" clip-rule="evenodd" d="M208.22 205.765h-24.44v23.97h24.44v-23.97ZM183 205v25.5h26V205h-26Z"/><path d="M209 230.5h25.5V256H209v-25.5Z"/><path fill-rule="evenodd" clip-rule="evenodd" d="M233.735 231.265h-23.97v23.97h23.97v-23.97ZM209 230.5V256h25.5v-25.5H209Z"/><path d="M29.5 51H55v26H29.5V51Z"/><path fill-rule="evenodd" clip-rule="evenodd" d="M54.235 51.78h-23.97v24.44h23.97V51.78ZM29.5 51v26H55V51H29.5Z"/><path d="M29.5 77H55v25.5H29.5V77Z"/><path fill-rule="evenodd" clip-rule="evenodd" d="M54.235 77.765h-23.97v23.97h23.97v-23.97ZM29.5 77v25.5H55V77H29.5Z"/><path d="M4 153.5h25.5V179H4v-25.5Z"/><path fill-rule="evenodd" clip-rule="evenodd" d="M28.735 154.265H4.765v23.97h23.97v-23.97ZM4 153.5V179h25.5v-25.5H4Z"/><path d="M4 205h25.5v25.5H4V205Z"/><path fill-rule="evenodd" clip-rule="evenodd" d="M28.735 205.765H4.765v23.97h23.97v-23.97ZM4 205v25.5h25.5V205H4Z"/><path d="M234.5 153.5H260V179h-25.5v-25.5Z"/><path fill-rule="evenodd" clip-rule="evenodd" d="M259.235 154.265h-23.97v23.97h23.97v-23.97ZM234.5 153.5V179H260v-25.5h-25.5Z"/><path d="M234.5 205H260v25.5h-25.5V205Z"/><path fill-rule="evenodd" clip-rule="evenodd" d="M259.235 205.765h-23.97v23.97h23.97v-23.97ZM234.5 205v25.5H260V205h-25.5Z"/><path d="M29.5 102.5H55V128H29.5v-25.5Z"/><path fill-rule="evenodd" clip-rule="evenodd" d="M54.235 103.265h-23.97v23.97h23.97v-23.97ZM29.5 102.5V128H55v-25.5H29.5Z"/><path d="M4 179h25.5v26H4v-26Z"/><path fill-rule="evenodd" clip-rule="evenodd" d="M28.735 179.78H4.765v24.44h23.97v-24.44ZM4 179v26h25.5v-26H4Z"/><path d="M234.5 179H260v26h-25.5v-26Z"/><path fill-rule="evenodd" clip-rule="evenodd" d="M259.235 179.78h-23.97v24.44h23.97v-24.44ZM234.5 179v26H260v-26h-25.5Z"/><path d="M157.5 77H183v25.5h-25.5V77Z"/><path fill-rule="evenodd" clip-rule="evenodd" d="M182.235 77.765h-23.97v23.97h23.97v-23.97ZM157.5 77v25.5H183V77h-25.5Z"/><path d="M81 77h25.5v25.5H81V77Z"/><path fill-rule="evenodd" clip-rule="evenodd" d="M105.735 77.765h-23.97v23.97h23.97v-23.97ZM81 77v25.5h25.5V77H81Z"/></g><defs><filter id="a" x="0" y="0" width="264" height="264" filterUnits="userSpaceOnUse" color-interpolation-filters="sRGB"><feFlood flood-opacity="0" result="BackgroundImageFix"/><feColorMatrix in="SourceAlpha" values="0 0 0 0 0 0 0 0 0 0 0 0 0 0 0 0 0 0 127 0" result="hardAlpha"/><feOffset dy="4"/><feGaussianBlur stdDeviation="2"/><feComposite in2="hardAlpha" operator="out"/><feColorMatrix values="0 0 0 0 0 0 0 0 0 0 0 0 0 0 0 0 0 0 0.25 0"/><feBlend in2="BackgroundImageFix" result="effect1_dropShadow_320_77"/><feBlend in="SourceGraphic" in2="effect1_dropShadow_320_77" result="shape"/></filter></defs></svg>

<svg width="264" height="264" viewBox="0 0 264 264" fill="none" xmlns="http://www.w3.org/2000/svg">
<g filter="url(#filter0_d_320_77)">
<path d="M55 25.5H81V51H55V25.5Z" fill="#775ADA"/>
<path fill-rule="evenodd" clip-rule="evenodd" d="M80.22 26.265H55.78V50.235H80.22V26.265ZM55 25.5V51H81V25.5H55Z" fill="#775ADA"/>
<path d="M4 128H29.5V153.5H4V128Z" fill="#775ADA"/>
<path fill-rule="evenodd" clip-rule="evenodd" d="M28.735 128.765H4.765V152.735H28.735V128.765ZM4 128V153.5H29.5V128H4Z" fill="#775ADA"/>
<path d="M234.5 128H260V153.5H234.5V128Z" fill="#775ADA"/>
<path fill-rule="evenodd" clip-rule="evenodd" d="M259.235 128.765H235.265V152.735H259.235V128.765ZM234.5 128V153.5H260V128H234.5Z" fill="#775ADA"/>
<path d="M81 0H106.5V25.5H81V0Z" fill="#775ADA"/>
<path fill-rule="evenodd" clip-rule="evenodd" d="M105.735 0.765H81.765V24.735H105.735V0.765ZM81 0V25.5H106.5V0H81Z" fill="#775ADA"/>
<path d="M106.5 0H132V25.5H106.5V0Z" fill="#775ADA"/>
<path fill-rule="evenodd" clip-rule="evenodd" d="M131.235 0.765H107.265V24.735H131.235V0.765ZM106.5 0V25.5H132V0H106.5Z" fill="#775ADA"/>
<path d="M132 0H157.5V25.5H132V0Z" fill="#775ADA"/>
<path fill-rule="evenodd" clip-rule="evenodd" d="M156.735 0.765H132.765V24.735H156.735V0.765ZM132 0V25.5H157.5V0H132Z" fill="#775ADA"/>
<path d="M157.5 0H183V25.5H157.5V0Z" fill="#775ADA"/>
<path fill-rule="evenodd" clip-rule="evenodd" d="M182.235 0.765H158.265V24.735H182.235V0.765ZM157.5 0V25.5H183V0H157.5Z" fill="#775ADA"/>
<path d="M183 25.5H209V51H183V25.5Z" fill="#775ADA"/>
<path fill-rule="evenodd" clip-rule="evenodd" d="M208.22 26.265H183.78V50.235H208.22V26.265ZM183 25.5V51H209V25.5H183Z" fill="#775ADA"/>
<path d="M209 51H234.5V77H209V51Z" fill="#775ADA"/>
<path fill-rule="evenodd" clip-rule="evenodd" d="M233.735 51.78H209.765V76.22H233.735V51.78ZM209 51V77H234.5V51H209Z" fill="#775ADA"/>
<path d="M209 77H234.5V102.5H209V77Z" fill="#775ADA"/>
<path fill-rule="evenodd" clip-rule="evenodd" d="M233.735 77.765H209.765V101.735H233.735V77.765ZM209 77V102.5H234.5V77H209Z" fill="#775ADA"/>
<path d="M209 102.5H234.5V128H209V102.5Z" fill="#775ADA"/>
<path fill-rule="evenodd" clip-rule="evenodd" d="M233.735 103.265H209.765V127.235H233.735V103.265ZM209 102.5V128H234.5V102.5H209Z" fill="#775ADA"/>
<path d="M29.5 230.5H55V256H29.5V230.5Z" fill="#775ADA"/>
<path fill-rule="evenodd" clip-rule="evenodd" d="M54.235 231.265H30.265V255.235H54.235V231.265ZM29.5 230.5V256H55V230.5H29.5Z" fill="#775ADA"/>
<path d="M55 205H81V230.5H55V205Z" fill="#775ADA"/>
<path fill-rule="evenodd" clip-rule="evenodd" d="M80.22 205.765H55.78V229.735H80.22V205.765ZM55 205V230.5H81V205H55Z" fill="#775ADA"/>
<path d="M81 205H106.5V230.5H81V205Z" fill="#775ADA"/>
<path fill-rule="evenodd" clip-rule="evenodd" d="M105.735 205.765H81.765V229.735H105.735V205.765ZM81 205V230.5H106.5V205H81Z" fill="#775ADA"/>
<path d="M106.5 230.5H132V256H106.5V230.5Z" fill="#775ADA"/>
<path fill-rule="evenodd" clip-rule="evenodd" d="M131.235 231.265H107.265V255.235H131.235V231.265ZM106.5 230.5V256H132V230.5H106.5Z" fill="#775ADA"/>
<path d="M132 230.5H157.5V256H132V230.5Z" fill="#775ADA"/>
<path fill-rule="evenodd" clip-rule="evenodd" d="M156.735 231.265H132.765V255.235H156.735V231.265ZM132 230.5V256H157.5V230.5H132Z" fill="#775ADA"/>
<path d="M157.5 205H183V230.5H157.5V205Z" fill="#775ADA"/>
<path fill-rule="evenodd" clip-rule="evenodd" d="M182.235 205.765H158.265V229.735H182.235V205.765ZM157.5 205V230.5H183V205H157.5Z" fill="#775ADA"/>
<path d="M183 205H209V230.5H183V205Z" fill="#775ADA"/>
<path fill-rule="evenodd" clip-rule="evenodd" d="M208.22 205.765H183.78V229.735H208.22V205.765ZM183 205V230.5H209V205H183Z" fill="#775ADA"/>
<path d="M209 230.5H234.5V256H209V230.5Z" fill="#775ADA"/>
<path fill-rule="evenodd" clip-rule="evenodd" d="M233.735 231.265H209.765V255.235H233.735V231.265ZM209 230.5V256H234.5V230.5H209Z" fill="#775ADA"/>
<path d="M29.5 51H55V77H29.5V51Z" fill="#775ADA"/>
<path fill-rule="evenodd" clip-rule="evenodd" d="M54.235 51.78H30.265V76.22H54.235V51.78ZM29.5 51V77H55V51H29.5Z" fill="#775ADA"/>
<path d="M29.5 77H55V102.5H29.5V77Z" fill="#775ADA"/>
<path fill-rule="evenodd" clip-rule="evenodd" d="M54.235 77.765H30.265V101.735H54.235V77.765ZM29.5 77V102.5H55V77H29.5Z" fill="#775ADA"/>
<path d="M4 153.5H29.5V179H4V153.5Z" fill="#775ADA"/>
<path fill-rule="evenodd" clip-rule="evenodd" d="M28.735 154.265H4.765V178.235H28.735V154.265ZM4 153.5V179H29.5V153.5H4Z" fill="#775ADA"/>
<path d="M4 205H29.5V230.5H4V205Z" fill="#775ADA"/>
<path fill-rule="evenodd" clip-rule="evenodd" d="M28.735 205.765H4.765V229.735H28.735V205.765ZM4 205V230.5H29.5V205H4Z" fill="#775ADA"/>
<path d="M234.5 153.5H260V179H234.5V153.5Z" fill="#775ADA"/>
<path fill-rule="evenodd" clip-rule="evenodd" d="M259.235 154.265H235.265V178.235H259.235V154.265ZM234.5 153.5V179H260V153.5H234.5Z" fill="#775ADA"/>
<path d="M234.5 205H260V230.5H234.5V205Z" fill="#775ADA"/>
<path fill-rule="evenodd" clip-rule="evenodd" d="M259.235 205.765H235.265V229.735H259.235V205.765ZM234.5 205V230.5H260V205H234.5Z" fill="#775ADA"/>
<path d="M29.5 102.5H55V128H29.5V102.5Z" fill="#775ADA"/>
<path fill-rule="evenodd" clip-rule="evenodd" d="M54.235 103.265H30.265V127.235H54.235V103.265ZM29.5 102.5V128H55V102.5H29.5Z" fill="#775ADA"/>
<path d="M4 179H29.5V205H4V179Z" fill="#775ADA"/>
<path fill-rule="evenodd" clip-rule="evenodd" d="M28.735 179.78H4.765V204.22H28.735V179.78ZM4 179V205H29.5V179H4Z" fill="#775ADA"/>
<path d="M234.5 179H260V205H234.5V179Z" fill="#775ADA"/>
<path fill-rule="evenodd" clip-rule="evenodd" d="M259.235 179.78H235.265V204.22H259.235V179.78ZM234.5 179V205H260V179H234.5Z" fill="#775ADA"/>
<path d="M157.5 77H183V102.5H157.5V77Z" fill="#775ADA"/>
<path fill-rule="evenodd" clip-rule="evenodd" d="M182.235 77.765H158.265V101.735H182.235V77.765ZM157.5 77V102.5H183V77H157.5Z" fill="#775ADA"/>
<path d="M81 77H106.5V102.5H81V77Z" fill="#775ADA"/>
<path fill-rule="evenodd" clip-rule="evenodd" d="M105.735 77.765H81.765V101.735H105.735V77.765ZM81 77V102.5H106.5V77H81Z" fill="#775ADA"/>
</g>
<defs>
<filter id="filter0_d_320_77" x="0" y="0" width="264" height="264" filterUnits="userSpaceOnUse" color-interpolation-filters="sRGB">
<feFlood flood-opacity="0" result="BackgroundImageFix"/>
<feColorMatrix in="SourceAlpha" type="matrix" values="0 0 0 0 0 0 0 0 0 0 0 0 0 0 0 0 0 0 127 0" result="hardAlpha"/>
<feOffset dy="4"/>
<feGaussianBlur stdDeviation="2"/>
<feComposite in2="hardAlpha" operator="out"/>
<feColorMatrix type="matrix" values="0 0 0 0 0 0 0 0 0 0 0 0 0 0 0 0 0 0 0.25 0"/>
<feBlend mode="normal" in2="BackgroundImageFix" result="effect1_dropShadow_320_77"/>
<feBlend mode="normal" in="SourceGraphic" in2="effect1_dropShadow_320_77" result="shape"/>
</filter>
</defs>
</svg>
